X: 1
T: Hair In The Gate
M: 4/4
L: 1/8
R: reel
K: Amin
EAAG A2 Ac| Be d2 d2 ed| cAAG A2 Ac| B2 Be eedg|
EAAG A2 Ac| Beed efed| ceac BAGA| (3cBA BG ABcA|
EAAG A2 Ac| Be d2 d2 ed| cAAG A2 Ac| B2 Be eedg|
EAAG A2 Ac| Beed efed| ceac BAGA| (3cBA BG ABce|
f2 fe defd| ec (3AAA Acec| f2 fe defd| e2 eg gage|
f2 fe defd| ec (3AAA Acec| ecAc dBGB| (3cBA BG ABce|
f2 fe defd| ec (3AAA Acec| f2 fe defd| e2 eg gage|
f2 fe defd| ec (3AAA Acec| ceAc dBGB| (3cBA BG A4|
